content/images/project/docker.svg

<svg width="36" height="36" viewBox="0 0 36 36" fill="none" xmlns="http://www.w3.org/2000/svg">
<path d="M0 4C0 1.79086 1.79086 0 4 0H32C34.2091 0 36 1.79086 36 4V32C36 34.2091 34.2091 36 32 36H4C1.79086 36 0 34.2091 0 32V4Z" fill="#3987CD"/>
<path d="M26 18.9999H4C3.99984 25.5 5.30016 30 14.5002 30C23.7002 30 27 25.5 27 22C27 22 28.194 21.7257 30 21.5C33.2 21.1 34 20 34 19.5C33.8333 19.1666 32.9 18.4999 30.5 18.4999C27.5 18.4999 31 12.9999 28.5 13.9999C26.5 14.7999 26 17.6666 26 18.9999Z" fill="white" fill-opacity="0.5"/>
<path d="M19.3795 17H23.6205C23.8214 17 24 16.8284 24 16.5833V12.4167C24 12.1961 23.8437 12 23.6205 12H19.3795C19.1786 12 19 12.1716 19 12.4167V16.5833C19 16.8284 19.1562 17 19.3795 17Z" fill="white"/>
<path d="M16.3795 10H20.6205C20.8214 10 21 9.80392 21 9.58333V5.41667C21 5.19608 20.8438 5 20.6205 5H16.3795C16.1786 5 16 5.17157 16 5.41667V9.58333C16.0223 9.80392 16.1786 10 16.3795 10Z" fill="white"/>
<path d="M12.3795 17H16.6205C16.8214 17 17 16.8039 17 16.5833V12.4167C17 12.1961 16.8437 12 16.6205 12H12.3795C12.1786 12 12 12.1716 12 12.4167V16.5833C12 16.8039 12.1562 17 12.3795 17Z" fill="white"/>
<path d="M5.37946 17H9.62053C9.82143 17 10 16.8039 10 16.5833V12.4167C10 12.1961 9.84375 12 9.62053 12H5.37946C5.17857 12 5 12.1716 5 12.4167V16.5833C5 16.8039 5.15625 17 5.37946 17Z" fill="white"/>
</svg>

<svg xmlns="http://www.w3.org/2000/svg" width="36" height="36" fill="none" viewBox="0 0 36 36"><path fill="#3987CD" d="M0 4a4 4 0 0 1 4-4h28a4 4 0 0 1 4 4v28a4 4 0 0 1-4 4H4a4 4 0 0 1-4-4V4Z"/><path fill="#fff" fill-opacity=".5" d="M26 19H4c0 6.5 1.3 11 10.5 11S27 25.5 27 22c0 0 1.194-.274 3-.5 3.2-.4 4-1.5 4-2-.167-.333-1.1-1-3.5-1-3 0 .5-5.5-2-4.5-2 .8-2.5 3.667-2.5 5Z"/><path fill="#fff" d="M19.38 17h4.24c.201 0 .38-.172.38-.417v-4.166c0-.22-.156-.417-.38-.417h-4.24c-.201 0-.38.172-.38.417v4.166c0 .245.156.417.38.417Zm-3-7h4.24c.201 0 .38-.196.38-.417V5.417c0-.22-.156-.417-.38-.417h-4.24c-.201 0-.38.172-.38.417v4.166c.022.22.179.417.38.417Zm-4 7h4.24c.201 0 .38-.196.38-.417v-4.166c0-.22-.156-.417-.38-.417h-4.24c-.201 0-.38.172-.38.417v4.166c0 .22.156.417.38.417Zm-7 0h4.24c.201 0 .38-.196.38-.417v-4.166c0-.22-.156-.417-.38-.417H5.38c-.201 0-.38.172-.38.417v4.166c0 .22.156.417.38.417Z"/></svg>
